X: 51
T: the Rose in the Heather
C:
%D:
R: jig
B: PC2 p.174
S: Fiddle Hell Online 2021-10-13 Portland Collection Jam
Z: 2022 John Chambers <jc:trillian.mit.edu> (slightly reformatted)
M: 6/8
L: 1/8
K: D
%%continueall
"^A"|: "D"~F2F "A"EFE | "D"DFA BAF |\
[1,3 ABd ede | "Bm"fdB "A"AFE :|\
[2,4 "G"AdB AFE | "A"FDC "D"D3 :|
"^B"|: "D"fdB ABd | faa afa |\
[1,3 "Em"~g3 fed | "A"Bee efg :|\
[2,4 "G"baf gfe | "A"fdc "D"d3 :|


